X: 41
T: Rogha Liadroma
C: J-14
M: 6/8
Z: Transcribed to abc by Mary Lou Knack
R: jig
K: G
"Em"GAG "D"FAF| "Em"E2B BAB| GAG "D"FAF| D2A AFD|
"Em"GAG "D"FAF| "Em"E2B BAB| GAB dBG| "D"FAG FED :|
|:\
"G"G2B dBd| edB dBA| G2B dBG| "D"ABG FED|
"G"G2B dBd| edB def| gfe dcB| "Am"ABG "D"FED:|
%%text 9/1/98
